img/in-icon.svg

<svg width="11" height="11" viewBox="0 0 11 11" fill="none" xmlns="http://www.w3.org/2000/svg">
<path d="M1.8215 3.78751e-07C1.64805 -0.000130987 1.47627 0.0339112 1.31597 0.100182C1.15568 0.166454 1.01001 0.263656 0.887296 0.386235C0.764577 0.508815 0.667209 0.654371 0.600756 0.814589C0.534303 0.974807 0.500066 1.14655 0.5 1.32C0.5 2.05 1.0915 2.655 1.82 2.655C2.5495 2.655 3.1415 2.05 3.1415 1.321C3.14163 1.14757 3.10759 0.975816 3.04131 0.815551C2.97503 0.655286 2.87782 0.509652 2.75523 0.386973C2.63265 0.264294 2.48709 0.166974 2.32687 0.100575C2.16666 0.0341761 1.99493 3.28984e-07 1.8215 3.78751e-07ZM8.2675 3.5C7.158 3.5 6.5235 4.08 6.2185 4.657H6.1865V3.6555H4V11H6.2785V7.3645C6.2785 6.4065 6.3505 5.4805 7.536 5.4805C8.7045 5.4805 8.7215 6.573 8.7215 7.425V11H11V6.966C11 4.992 10.5755 3.5 8.2675 3.5ZM0.6815 3.655V11H2.9615V3.655H0.6815Z" fill="#9F9F9F"/>
</svg>

<svg width="11" height="11" fill="none" xmlns="http://www.w3.org/2000/svg"><path d="M1.821 0A1.32 1.32 0 0 0 .5 1.32c0 .73.591 1.335 1.32 1.335A1.333 1.333 0 0 0 2.755.387 1.32 1.32 0 0 0 1.822 0Zm6.446 3.5c-1.109 0-1.743.58-2.048 1.157h-.033V3.655H4V11h2.279V7.364c0-.957.072-1.883 1.257-1.883 1.168 0 1.186 1.092 1.186 1.944V11H11V6.966C11 4.992 10.575 3.5 8.268 3.5Zm-7.585.155V11h2.28V3.655H.682Z" fill="#9F9F9F"/></svg>
